X: 14525
T: Gan Ainm
R: barndance
M: 4/4
K: Gmajor
|:(3GFE|D2 G2 G>FG>B|D2 B2 B>AB>d|c2 c>B A>GF>G|(3ABA (3GFE D>CB,>E|
D2 G2 G2 (3GFE|D2 B2 B2 (3Bcd|c2 c>B A>GF>G|(3ABA G>F G2:|
|:(3ABc|d2 d2 d>ed>c|B2 B2 B>A (3GAB|c2 c2 c>dc>B|A2 A>F D>F (3ABc|
d>^cd>e d2 (3ed=c|B2 (3ABA G2 A>B|c>Bc>A (3BAG (3EFG|A2 G2 G2:|

